!!!PDT:	1923
!!!LANG: Non-Tone
!!!LING_GROUP: Siouan
!!!REG: Dakotas
!!!COM: Anon.
!!!OTL: Song of the Little River Women Society (b)
!!!ODT: <1918//
!!!MPN: Wopite [Scattered Corn, Mrs. Holding Eagle]
!!!MLC: Fort Berthold Reservation, North Dakota, United States of America
!! Song was recorded during either the summer of 1912, 1915, or 1918.
!!!AGN: monody
!!!SOCIAL_FUNCTION: Ceremony of the Little River Women Society
!!!AMT: irregular
!!!RWG: Transcribed pitches, durations, and meters are only approximate.
!! Drum not recorded.
**kern
*ICvox
*Ifemale
*clefF4
*k[f#c#]
*M2/4
*MM72
=1-
4e
4e
=2
8.d
16B
8B
16d
16d
=3
16d
16B
8B
16B
16B
[8B
=4
2B]
=5
16B
8.B
16B
8B
16B
=6
4e
4e
=7
8.d
16B
8B
16d
16d
*M3/4
=8
16d
8.B
8F#
[8F#
4F#]
*M2/4
=9
16E
8.E
16D
8.BB
=10
16E
8.E
16D
8.BB
=11
2B
=12
4e
4e
=13
8.d
16B
8B
16d
16d
*M3/4
=14
16d
8.B
8F#
[8F#
4F#]
*M2/4
=15
16E
8.E
16D
8.BB
=16
16E
8.E
16D
8.BB
=17
2B
==
*-
!!!CNT: Mandan
!!!TXO: Mandan
!!!OCY: United States
!!!OCL: Frances Densmore
!!!YOR: Frances Densmore, "Mandan and Hidatsa Music",
!!!YOR: Bulletin 80, page 107, No. 46
!!!PPR: Smithsonian Institution, Bureau of American Ethnology
!!!PPR: Government Printing Office
!!!PDT: 1923
!!!PPP: Washington, DC, United States of America
!!!YEC: Electronic Copyright 2000 David Huron
!!!YER: August 2000
!!!YEN: United States of America
!!!ENC: David Huron
!!!RDT: August 16, 2000
!!!EEV: Release 1.0
!!!AIN: tom, vox
